X:1
T:Black-eyed Mary 2
M:2/4
L:1/8
K:C
 E| DC DE| G2 GG| AG ED| E3 D| CC A,A,| A,2 G,C| CC A, G,| A,3||
